X:1
T:Dwight, LM
T:Dwight, LM
T:Arr. from Bellini by Joseph P. Holbrook, 1868
T:Public Domain Courtesy of the Cyber Hymnal™
C:Arr. from Bellini by Joseph P. Holbrook, 1868
Z:Public Domain
Z:Courtesy of the Cyber Hymnal™
%%score ( 1 2 ) ( 3 4 )
L:1/8
Q:1/4=98
M:4/4
K:Ab
V:1 treble 
V:2 treble 
V:3 bass 
V:4 bass 
V:1
 [Ec]2 [EB]>A [Gc]2 ([EB][DG]) | [CA]3 [DB] [Ec]2 z2 | [EB]2 [EB]>[EB] [Ec]2 [Ae]2 | %3
 [Af]2 (ec) [EB]2 z2 | [Ee]2 [Ed]>[Ac] [Ge]2 (dB) | [EA]3 F [EA]2 z2 | %6
 [Ad]2 [Ae][Af] (ec) ([FA][_FB]) | [Ec]2 (c>B) [CA]2 |] %8
V:2
 x7/2 A/ x4 | x8 | x8 | x2 E2 x4 | x6 E2 | x3 F x4 | x4 A2 x2 | x2 D2 x2 |] %8
V:3
 [A,E]2 [A,D]>[A,C] [E,E]2 (DB,) | [A,,A,]3 [A,,A,] [A,,A,]2 z2 | %2
 [E,G,]2 [E,G,]>[E,G,] A,2 [A,C]2 | [A,,A,D]2 (CB,) [E,G,]2 z2 | %4
 [A,C]2 [A,,B,]>[A,,A,] [E,B,]2 (B,D) | [A,,C]3 [A,,D] [A,,C]2 z2 | [F,D]2 [E,C][D,D] [C,E]2 A,2 | %7
 [E,A,]2 [E,G,]2 [A,,A,]2 |] %8
V:4
 x6 E,2 | x8 | x4 A,2 x2 | x2 A,,2 x4 | x6 E,2 | x8 | x6 (F,D,) | x6 |] %8

